X:1
T:Title
%%score { ( 1 3 ) | ( 2 4 ) }
L:1/8
Q:1/4=100
M:6/8
K:Eb
V:1 treble nm="Grand Piano"
V:3 treble 
V:2 bass 
V:4 bass 
V:1
 E2 B, E2 B, | E2 [B,DF] [EG]2 A | [EGB]2 [B,EG] [EGB]2 [B,EG] | [GB]c[EGB] E2- [EF] | %4
w: F.~E.~Belden * * *||||
 E2 B, E2 B, | E2 [DF] G2 B | d2 F d2 F |[M:7/8] cdc [B,DB]3 z | %8
w: ||||
[M:3/4] [EAc][EAc] [EAc] [EAc]2 [CGB] | [CFA]2 [C=EG] .[CFA]3 | [EGB][EGB] [EGB] [EGB]2 [B,FA] | %11
w: |||
 [B,EG]2 [B,DF] .[B,EG]3 | E2 B, G2 E |[M:7/8] B2 G [Ge]3 z |[M:3/4] [GB]c [EGB] [B,EG]2 [G,E] | %15
w: ||||
 D2 z2 z2 |] %16
w: |
V:2
 E,2 B,, E,2 B,, | E,2 B,, z2 F | E,2 E, E,2 E, | z AE, z2 A, | [E,G,]2 B,, [E,G,]2 B,, | %5
 [E,G,]2 [B,,B,] E2[K:treble] G | [F,B,F]2[K:bass] [F,B,D] [F,B,F]2 [F,B,D] | %7
[M:7/8] EF[F,A,E] B,,3 z |[M:3/4] A,,A,, A,, A,,2 =E, | F,2 C, .F,3 | B,,B,, B,, B,,2 D, | %11
 E,2 B,, .E,3 | E,2 B,, G,2 E, |[M:7/8] B,2 G, [E,B,]3 z |[M:3/4] [E,E]2 z2 z2 | z B, B,, E,3 |] %16
V:3
 x6 | z3 B,3 | x6 | z3 .[B,G]3 | x6 | x6 | x6 |[M:7/8] x7 |[M:3/4] x6 | x6 | x6 | x6 | x6 | %13
[M:7/8] x7 |[M:3/4] x6 | [A,F]G [A,DF] [G,E]3 |] %16
V:4
 x6 | z3 E,3 | x6 | .[E,E]3 E,3 | x6 | z3 [E,B,]3[K:treble] | x2[K:bass] x4 | %7
[M:7/8] [F,A,]2 z z z z2 |[M:3/4] x6 | x6 | x6 | x6 | x6 |[M:7/8] x7 |[M:3/4] z A E, E,2 E, | %15
 B,,2 z2 z2 |] %16

